website/assets/img/pagina-inicial/construa-voce-mesmo.svg

<svg xmlns="http://www.w3.org/2000/svg" viewBox="0 0 1000 1000"><defs><style>.cls-1{fill:#898989}.cls-3{fill:#fbdeba}.cls-5{fill:#802927}.cls-8{fill:#e5e5e5}.cls-9{fill:#a8a8a8}</style></defs><g id="Pessoa"><path d="M578 138.8h-47.2V186H578a47.2 47.2 0 01-47.2 47.2 47.2 47.2 0 01-47.2-47.2H318.4a23.59 23.59 0 01-23.6-23.6 23.59 23.59 0 0123.6-23.6h165.2a47.2 47.2 0 0147.2-47.2 47.2 47.2 0 0147.2 47.2z" class="cls-1"/><path fill="#29718f" d="M979.2 433.8v271.4H530.8V551.8h-47.2v-118h495.6z"/><path d="M412.8 186H342v271.4a70.8 70.8 0 0070.8 70.8h70.8v-70.8h-47.2a23.59 23.59 0 01-23.6-23.6z" class="cls-3"/><path fill="#225a6b" d="M660.6 433.8v118h188.8v-118h47.2v118l82.6 82.6v70.8H530.8v-70.8l82.6-82.6v-118h47.2z"/><path d="M707.8 410.2v47.2a47.19 47.19 0 0013.83 33.37 47.19 47.19 0 0066.74 0 47.19 47.19 0 0013.83-33.37v-47.2z" class="cls-3"/><path d="M707.8 416.84v-6.64h94.4v47.2a47.11 47.11 0 01-11.44 30.48 129.92 129.92 0 01-82.96-71.04z" class="cls-3"/><path d="M884.8 162.4v129.8A129.8 129.8 0 01755 422a129.8 129.8 0 01-129.8-129.8V162.4z" class="cls-3"/><path d="M719.6 327.6h70.8v11.8a35.4 35.4 0 01-35.4 35.4 35.4 35.4 0 01-35.4-35.4z" class="cls-5"/><path d="M625.2 256.8h-23.6a23.59 23.59 0 00-23.6 23.6 23.59 23.59 0 0023.6 23.6h23.6zM884.8 256.8h23.6a23.59 23.59 0 0123.6 23.6 23.59 23.59 0 01-23.6 23.6h-23.6z" class="cls-3"/><path d="M625.2 162.4h259.6v-11.8A129.81 129.81 0 00755 20.8a129.8 129.8 0 00-129.8 129.8v11.8z" class="cls-5"/><path d="M766.8 162.4a47.2 47.2 0 0047.2 47.2h141.6a47.2 47.2 0 00-47.2-47.2z" fill="#5e1f1f"/><path class="cls-3" d="M342 103.4h70.8v47.2H342z"/><path d="M625.2 221.4h35.4a59 59 0 0059-59h-94.4v59z" fill="#ffbc05"/><path d="M530.8 142a236.14 236.14 0 01-62.8 44h15.6a47.2 47.2 0 0094.4 0h-47.2zM562.31 103.88A236.87 236.87 0 01534 138.8h44a46.87 46.87 0 00-15.69-34.92z" class="cls-1"/><path d="M755 386.6a47.2 47.2 0 0047.2-47.2v-23.6h-94.4v23.6a47.2 47.2 0 0047.2 47.2zm23.6-47.2a23.6 23.6 0 11-47.2 0z"/><path d="M979.2 422H814v-1.18a140.36 140.36 0 0080.58-105h13.82a35.4 35.4 0 000-70.8h-11.8V221.4h70.8v-11.8a59.06 59.06 0 00-59-59h-11.8a141.6 141.6 0 00-283.2 0V245h-11.8a35.4 35.4 0 100 70.8h13.82a140.36 140.36 0 0080.58 105v1.2H483.6a11.81 11.81 0 00-11.8 11.8v11.8h-35.4a11.81 11.81 0 01-11.8-11.8v-236H473A59 59 0 00589.8 186v-11.8h-47.2v-23.6h47.2v-11.8A59 59 0 00473 127h-48.4v-23.6a11.81 11.81 0 00-11.8-11.8H342a11.81 11.81 0 00-11.8 11.8V127h-11.8a35.4 35.4 0 100 70.8h11.8v259.6a82.71 82.71 0 0082.6 82.6h59v11.8a11.81 11.81 0 0011.8 11.8H519v141.6a11.81 11.81 0 0011.8 11.8h448.4a11.81 11.81 0 0011.8-11.8V433.8a11.81 11.81 0 00-11.8-11.8zm-11.8 183.91l-59-59V445.6h59zm-59-337.31a11.8 11.8 0 110 23.6h-11.8v-23.6zm0-94.4a35.45 35.45 0 0133.38 23.6H814a35.45 35.45 0 01-33.38-23.6zM755 32.6a118.13 118.13 0 01118 118H637a118.13 118.13 0 01118-118zm-48.7 141.6a47.26 47.26 0 01-45.7 35.4H637v-35.4zm-104.7 118a11.8 11.8 0 010-23.6h11.8v23.6zm35.4 0v-59h23.6a70.86 70.86 0 0069.74-59h25.84A59.11 59.11 0 00814 221.4h59v70.8A117.26 117.26 0 01797.91 402a11.81 11.81 0 00-7.51 11v44.4a35.61 35.61 0 01-10.37 25 36.25 36.25 0 01-50.06 0 35.61 35.61 0 01-10.37-25V413a11.8 11.8 0 00-7.5-11A117.27 117.27 0 01637 292.2zm76.29 206.91A59 59 0 00814 457.4v-11.8h23.6V540H672.4v-94.4H696v11.8a58.55 58.55 0 0017.29 41.71zM353.8 115.2H401v23.6h-47.2zm-35.4 59a11.8 11.8 0 110-23.6h11.8a11.81 11.81 0 0011.8 11.8h70.8a11.81 11.81 0 0011.8-11.8h70.8v-11.8a35.4 35.4 0 0168.78-11.8H519v70.8h45.18A35.4 35.4 0 01495.4 186v-11.8zm94.4 342.2a59.07 59.07 0 01-59-59V197.8H401v236a35.4 35.4 0 0035.4 35.4h35.4v47.2zm82.6 23.6v-94.4h106.2v101.31l-59 59V551.8a11.81 11.81 0 00-11.8-11.8zm472 153.4H542.6v-54.12l79.14-79.14a11.74 11.74 0 003.46-8.34V445.6h23.6v106.2a11.81 11.81 0 0011.8 11.8h188.8a11.81 11.81 0 0011.8-11.8V445.6h23.6v106.2a11.74 11.74 0 003.46 8.34l79.14 79.14z"/><path d="M707.8 292.2h23.6v-11.8a35.4 35.4 0 00-70.8 0v11.8h23.6v-11.8a11.8 11.8 0 0123.6 0v11.8zM802.2 280.4a11.8 11.8 0 0123.6 0v11.8h23.6v-11.8a35.4 35.4 0 00-70.8 0v11.8h23.6v-11.8z"/></g><g id="Lixeira"><path d="M359.29 576.06a31.93 31.93 0 010 63.86H50.89a31.93 31.93 0 110-63.86zM358.6 640.38V931c0 28.62-20.42 49-45.62 49H97.2c-25.2 0-45.62-20.4-45.62-49V639.92h307z" class="cls-8"/><path d="M272.38 681.44A11.4 11.4 0 00261 692.85V908.4a11.41 11.41 0 1022.81 0V692.85a11.41 11.41 0 00-11.43-11.41zM137.8 681.44a11.4 11.4 0 00-11.4 11.41V908.4a11.41 11.41 0 1022.81 0V692.85a11.41 11.41 0 00-11.41-11.41z" class="cls-9"/><path d="M39.72 650v281c0 16.61 6.08 32.2 16.73 43.4A56.16 56.16 0 0097.2 992H313a56.16 56.16 0 0040.75-17.62c10.65-11.2 16.74-26.79 16.74-43.4V650a45.84 45.84 0 0019.7-11.37 43.66 43.66 0 00-30.88-74.32H300.9v-14.26a44.81 44.81 0 00-45.17-45H154.45a44.8 44.8 0 00-45.16 45v14.26h-58.4A43.56 43.56 0 0039.72 650zM313 969.19H97.2c-19.51 0-34.67-16.75-34.67-38.21V651h285.13v280c0 21.44-15.17 38.19-34.66 38.19zM132.1 550.05a22 22 0 0122.35-22.24h101.28a22 22 0 0122.36 22.24v14.26h-146zm-95.73 43.26a20.59 20.59 0 0114.52-6.19h308.4a20.71 20.71 0 0120.53 20.7 20.38 20.38 0 01-20.53 20.36H50.89a20.5 20.5 0 01-20.53-20.44 20.24 20.24 0 016.01-14.43z" class="cls-9"/><path d="M205.09 681.44a11.4 11.4 0 00-11.4 11.41V908.4a11.41 11.41 0 1022.81 0V692.85a11.41 11.41 0 00-11.41-11.41z" class="cls-9"/></g></svg>

<svg xmlns="http://www.w3.org/2000/svg" viewBox="0 0 1000 1000"><defs><style>.cls-1{fill:#898989}.cls-2{fill:#29718f}.cls-3{fill:#fbdeba}.cls-4{fill:#225a6b}.cls-5{fill:#802927}.cls-6{fill:#5e1f1f}.cls-7{fill:#ffbc05}.cls-8{fill:#e5e5e5}.cls-9{fill:#a8a8a8}</style></defs><title>Construa-Voce-Mesmo</title><g id="Pessoa"><path d="M578,138.8H530.8V186H578a47.2,47.2,0,0,1-47.2,47.2h0A47.2,47.2,0,0,1,483.6,186H318.4a23.59,23.59,0,0,1-23.6-23.6h0a23.59,23.59,0,0,1,23.6-23.6H483.6a47.2,47.2,0,0,1,47.2-47.2h0A47.2,47.2,0,0,1,578,138.8Z" class="cls-1"/><polygon points="979.2 433.8 979.2 705.2 530.8 705.2 530.8 551.8 483.6 551.8 483.6 433.8 979.2 433.8" class="cls-2"/><path d="M412.8,186H342V457.4a70.8,70.8,0,0,0,70.8,70.8h70.8V457.4H436.4a23.59,23.59,0,0,1-23.6-23.6Z" class="cls-3"/><polygon points="660.6 433.8 660.6 551.8 849.4 551.8 849.4 433.8 896.6 433.8 896.6 551.8 979.2 634.4 979.2 705.2 530.8 705.2 530.8 634.4 613.4 551.8 613.4 433.8 660.6 433.8" class="cls-4"/><path d="M707.8,410.2v47.2a47.19,47.19,0,0,0,13.83,33.37h0a47.19,47.19,0,0,0,66.74,0h0A47.19,47.19,0,0,0,802.2,457.4V410.2Z" class="cls-3"/><path d="M707.8,416.84V410.2h94.4v47.2a47.11,47.11,0,0,1-11.44,30.48A129.92,129.92,0,0,1,707.8,416.84Z" class="cls-3"/><path d="M884.8,162.4V292.2A129.8,129.8,0,0,1,755,422h0A129.8,129.8,0,0,1,625.2,292.2V162.4Z" class="cls-3"/><path d="M719.6,327.6h70.8v11.8A35.4,35.4,0,0,1,755,374.8h0a35.4,35.4,0,0,1-35.4-35.4Z" class="cls-5"/><path d="M625.2,256.8H601.6A23.59,23.59,0,0,0,578,280.4h0A23.59,23.59,0,0,0,601.6,304h23.6Z" class="cls-3"/><path d="M884.8,256.8h23.6A23.59,23.59,0,0,1,932,280.4h0A23.59,23.59,0,0,1,908.4,304H884.8Z" class="cls-3"/><path d="M625.2,162.4H884.8V150.6A129.81,129.81,0,0,0,755,20.8h0A129.8,129.8,0,0,0,625.2,150.6v11.8Z" class="cls-5"/><path d="M766.8,162.4h0A47.2,47.2,0,0,0,814,209.6H955.6a47.2,47.2,0,0,0-47.2-47.2Z" class="cls-6"/><rect width="70.8" height="47.2" x="342" y="103.4" class="cls-3"/><path d="M625.2,221.4h35.4a59,59,0,0,0,59-59H625.2v59Z" class="cls-7"/><path d="M530.8,142A236.14,236.14,0,0,1,468,186H483.6a47.2,47.2,0,0,0,94.4,0H530.8Z" class="cls-1"/><path d="M562.31,103.88A236.87,236.87,0,0,1,534,138.8h44A46.87,46.87,0,0,0,562.31,103.88Z" class="cls-1"/><path d="M755,386.6a47.2,47.2,0,0,0,47.2-47.2V315.8H707.8v23.6A47.2,47.2,0,0,0,755,386.6Zm23.6-47.2a23.6,23.6,0,1,1-47.2,0Z"/><path d="M979.2,422H814v-1.18a140.36,140.36,0,0,0,80.58-105H908.4a35.4,35.4,0,0,0,0-70.8H896.6V221.4h70.8V209.6a59.06,59.06,0,0,0-59-59H896.6a141.6,141.6,0,0,0-283.2,0V245H601.6a35.4,35.4,0,1,0,0,70.8h13.82a140.36,140.36,0,0,0,80.58,105V422H483.6a11.81,11.81,0,0,0-11.8,11.8v11.8H436.4a11.81,11.81,0,0,1-11.8-11.8v-236H473A59,59,0,0,0,589.8,186V174.2H542.6V150.6h47.2V138.8A59,59,0,0,0,473,127H424.6V103.4a11.81,11.81,0,0,0-11.8-11.8H342a11.81,11.81,0,0,0-11.8,11.8V127H318.4a35.4,35.4,0,1,0,0,70.8h11.8V457.4A82.71,82.71,0,0,0,412.8,540h59v11.8a11.81,11.81,0,0,0,11.8,11.8H519V705.2A11.81,11.81,0,0,0,530.8,717H979.2A11.81,11.81,0,0,0,991,705.2V433.8A11.81,11.81,0,0,0,979.2,422ZM967.4,605.91l-59-59V445.6h59Zm-59-337.31a11.8,11.8,0,1,1,0,23.6H896.6V268.6Zm0-94.4a35.45,35.45,0,0,1,33.38,23.6H814a35.45,35.45,0,0,1-33.38-23.6ZM755,32.6a118.13,118.13,0,0,1,118,118H637A118.13,118.13,0,0,1,755,32.6ZM706.3,174.2a47.26,47.26,0,0,1-45.7,35.4H637V174.2Zm-104.7,118a11.8,11.8,0,0,1,0-23.6h11.8v23.6Zm35.4,0v-59h23.6a70.86,70.86,0,0,0,69.74-59h25.84A59.11,59.11,0,0,0,814,221.4h59v70.8A117.26,117.26,0,0,1,797.91,402a11.81,11.81,0,0,0-7.51,11V457.4a35.61,35.61,0,0,1-10.37,25,36.25,36.25,0,0,1-50.06,0,35.61,35.61,0,0,1-10.37-25V413a11.8,11.8,0,0,0-7.5-11A117.27,117.27,0,0,1,637,292.2Zm76.29,206.91A59,59,0,0,0,814,457.4V445.6h23.6V540H672.4V445.6H696v11.8A58.55,58.55,0,0,0,713.29,499.11ZM353.8,115.2H401v23.6H353.8Zm-35.4,59a11.8,11.8,0,1,1,0-23.6h11.8A11.81,11.81,0,0,0,342,162.4h70.8a11.81,11.81,0,0,0,11.8-11.8h70.8V138.8A35.4,35.4,0,0,1,564.18,127H519v70.8h45.18A35.4,35.4,0,0,1,495.4,186V174.2Zm94.4,342.2a59.07,59.07,0,0,1-59-59V197.8H401v236a35.4,35.4,0,0,0,35.4,35.4h35.4v47.2ZM495.4,540V445.6H601.6V546.91l-59,59V551.8A11.81,11.81,0,0,0,530.8,540Zm472,153.4H542.6V639.28l79.14-79.14a11.74,11.74,0,0,0,3.46-8.34V445.6h23.6V551.8a11.81,11.81,0,0,0,11.8,11.8H849.4a11.81,11.81,0,0,0,11.8-11.8V445.6h23.6V551.8a11.74,11.74,0,0,0,3.46,8.34l79.14,79.14Z"/><path d="M707.8,292.2h23.6V280.4a35.4,35.4,0,0,0-70.8,0v11.8h23.6V280.4a11.8,11.8,0,0,1,23.6,0v11.8Z"/><path d="M802.2,280.4a11.8,11.8,0,0,1,23.6,0v11.8h23.6V280.4a35.4,35.4,0,0,0-70.8,0v11.8h23.6V280.4Z"/></g><g id="Lixeira"><path d="M359.29,576.06a31.93,31.93,0,0,1,0,63.86H50.89a31.93,31.93,0,1,1,0-63.86Z" class="cls-8"/><path d="M358.6,640.38V931c0,28.62-20.42,49-45.62,49H97.2C72,980,51.58,959.6,51.58,931V639.92h307Z" class="cls-8"/><path d="M272.38,681.44A11.4,11.4,0,0,0,261,692.85V908.4a11.41,11.41,0,1,0,22.81,0V692.85A11.41,11.41,0,0,0,272.38,681.44Z" class="cls-9"/><path d="M137.8,681.44a11.4,11.4,0,0,0-11.4,11.41V908.4a11.41,11.41,0,1,0,22.81,0V692.85A11.41,11.41,0,0,0,137.8,681.44Z" class="cls-9"/><path d="M39.72,650V931c0,16.61,6.08,32.2,16.73,43.4A56.16,56.16,0,0,0,97.2,992H313a56.16,56.16,0,0,0,40.75-17.62c10.65-11.2,16.74-26.79,16.74-43.4V650a45.84,45.84,0,0,0,19.7-11.37,43.66,43.66,0,0,0-30.88-74.32H300.9V550.05a44.81,44.81,0,0,0-45.17-45H154.45a44.8,44.8,0,0,0-45.16,45v14.26H50.89A43.56,43.56,0,0,0,39.72,650ZM313,969.19H97.2c-19.51,0-34.67-16.75-34.67-38.21V651H347.66V931C347.66,952.44,332.49,969.19,313,969.19ZM132.1,550.05a22,22,0,0,1,22.35-22.24H255.73a22,22,0,0,1,22.36,22.24v14.26h-146ZM36.37,593.31a20.59,20.59,0,0,1,14.52-6.19h308.4a20.71,20.71,0,0,1,20.53,20.7,20.38,20.38,0,0,1-20.53,20.36H50.89a20.5,20.5,0,0,1-20.53-20.44A20.24,20.24,0,0,1,36.37,593.31Z" class="cls-9"/><path d="M205.09,681.44a11.4,11.4,0,0,0-11.4,11.41V908.4a11.41,11.41,0,1,0,22.81,0V692.85A11.41,11.41,0,0,0,205.09,681.44Z" class="cls-9"/></g></svg>
